svg/uf0104-ammo_special.svg

<svg height="960" style="" width="1584" xmlns="http://www.w3.org/2000/svg"><path d="m287.99947 0-167.99927 167.99927v624.00146l167.99927 167.99927h1008.00113l167.9992-167.99927v-624.00146l-167.9992-167.99927zm48.00109 120h911.99884l96.0004 96.00037v527.99926l-96.0004 96.00037h-911.99884l-96.00036-96.00037v-527.99926zm336.00037 107.99927c-36 0-84.00146 120.0011-84.00146 168.0011h168.00109c0-48-47.99963-168.0011-83.99963-168.0011zm240 0c-36 0-84.00146 120.0011-84.00146 168.0011h168.00109c0-48-47.99963-168.0011-83.99963-168.0011zm-324.00146 216.00036v276.00037h168.00109v-276.00037zm240 0v276.00037h168.00109v-276.00037z" style="fill:#73f88f;stroke-width:.9375"/></svg>

<svg xmlns="http://www.w3.org/2000/svg" width="1584" height="960">
    <path d="M288 0 120 168v624l168 168h1008l168-168V168L1296 0zm48 120h912l96 96v528l-96 96H336l-96-96V216zm336 108c-36 0-84 120-84 168h168c0-48-48-168-84-168m240 0c-36 0-84 120-84 168h168c0-48-48-168-84-168M588 444v276h168V444zm240 0v276h168V444z" style="fill:#73f88f;stroke-width:.9375"/>
</svg>
